!!!OTL: Der Traum.
!!!OTL-incipit: ICH HAB DIE NACHT GETRAEUMET
!!!ARE: Europa, Mitteleuropa, Deutschland, Schlesien
!!!SCT: Z1267
!!!TXL: @@DE
!!!YEM: Copyright 1995, estate of Helmut Schaffrath.
**kern	**text
*ICvox	*
*M6/8	*
*k[b-e-]	*
*g:	*
!LO:TX:a:t=Aus Schleſien.	!
{8d	Jch
=1	=1
4g	hab'
8a	die
8b-L	Nacht
8aJ	.
8g	ge-
=2	=2
4.dd	-träu-
4a}	-met
{8cc	wohl
=3	=3
8.b-L	ei-
16aJ	.
8g	-nen
4f#	ſchweren
8g	.
=4	=4
4a	Traum,
8r	.
4r}	.
{8g	es
=5	=5
4dd	wuchs
8dd	in
4b-	mei-
8g	-nem
=6	=6
4.gg	Gar-
4ee-}	-ten
{8cc	ein
=7	=7
8.b-L	Ros-
16aJ	.
8g	-ma-
8.aL	-ri-
16gJ	.
8f#	-en-
=8	=8
4g	-baum.
8r	.
4r}	.
==	==
!!!AGN: Natur und Welt, Tod
!!!ONB: ESAC (Essen Associative Code) Database: ZUCCAL
!!!AMT: compound duple
!!!AIN: vox
!!!EED: Helmut Schaffrath
!!!EEV: 1.0
!!!GTL: VI. Natur und Welt.
!!!URL-scan: https://www.digitale-sammlungen.de/de/view/bsb11160573?page=492
!!!ENC: Anna Maria Matuszewska
!!!EEV: 2025/02/06
*-	*-
